app/dist/common/images/10x-capital.svg

<svg fill="none" height="18" width="18" xmlns="http://www.w3.org/2000/svg" xmlns:xlink="http://www.w3.org/1999/xlink"><linearGradient id="a" gradientUnits="userSpaceOnUse" x1="12.651" x2="12.651" y1="6.278" y2="12.111"><stop offset="0" stop-color="#0374fd"/><stop offset="1" stop-color="#01326f"/></linearGradient><path d="m0 0h18v18h-18z" fill="#f0f3fa"/><path d="m4.678 6.5v4.5h-1.678v-2.54l-.617.568-.383-1.404 1.53-1.124z" fill="#000"/><path d="m13.726 12-4.577-6h2.017l4.577 6z" fill="url(#a)"/><g fill="#000"><path d="m12.77 7.161 1.226-1.661h2.004l-2.219 3.003-1.011-1.343zm-1.87 2.059-2.454 3.28h2.01l1.452-1.94-1.01-1.34z"/><path clip-rule="evenodd" d="m9.588 8.75c0-.169-.015-.337-.046-.5l-1.327-1.623a2.454 2.454 0 0 0 -.805-.127c-1.485 0-2.177 1.104-2.177 2.25s.693 2.25 2.177 2.25a2.5 2.5 0 0 0 .726-.101l1.424-1.756c.018-.13.028-.261.028-.394zm-1.584 0c0-.425 0-1.212-.593-1.212-.594 0-.594.787-.594 1.212s0 1.212.594 1.212c.593 0 .593-.787.593-1.212z" fill-rule="evenodd"/></g></svg>

<!-- by TradingView --><svg width="18" height="18" fill="none" xmlns="http://www.w3.org/2000/svg"><path fill="#F0F3FA" d="M0 0h18v18H0z"/><path d="M4.678 6.5V11H3V8.46l-.617.568L2 7.624 3.53 6.5h1.148z" fill="#000"/><path d="M13.726 12L9.149 6h2.017l4.577 6h-2.017z" fill="url(#paint0_linear_3186)"/><path d="M12.77 7.161L13.996 5.5H16l-2.219 3.003L12.77 7.16zM10.9 9.22L8.446 12.5h2.01l1.452-1.94-1.01-1.34z" fill="#000"/><path fill-rule="evenodd" clip-rule="evenodd" d="M9.588 8.75c0-.169-.015-.337-.046-.5L8.215 6.627A2.454 2.454 0 007.41 6.5c-1.485 0-2.177 1.104-2.177 2.25S5.926 11 7.41 11a2.5 2.5 0 00.726-.101L9.56 9.143c.018-.13.028-.261.028-.394zm-1.584 0c0-.425 0-1.212-.593-1.212-.594 0-.594.787-.594 1.212 0 .425 0 1.212.594 1.212.593 0 .593-.787.593-1.212z" fill="#000"/><defs><linearGradient id="paint0_linear_3186" x1="12.651" y1="6.278" x2="12.651" y2="12.111" gradientUnits="userSpaceOnUse"><stop stop-color="#0374FD"/><stop offset="1" stop-color="#01326F"/></linearGradient></defs></svg>
